src/stories/assets/youtube.svg

<svg width="32" height="32" viewBox="0 0 32 32" fill="none" xmlns="http://www.w3.org/2000/svg">
<path d="M31.3313 8.44657C30.9633 7.08998 29.8791 6.02172 28.5022 5.65916C26.0067 5.00026 16 5.00026 16 5.00026C16 5.00026 5.99333 5.00026 3.4978 5.65916C2.12102 6.02172 1.03665 7.08998 0.668678 8.44657C0 10.9053 0 16.0353 0 16.0353C0 16.0353 0 21.1652 0.668678 23.6242C1.03665 24.9806 2.12102 26.0489 3.4978 26.4116C5.99333 27.0703 16 27.0703 16 27.0703C16 27.0703 26.0067 27.0703 28.5022 26.4116C29.8791 26.0489 30.9633 24.9806 31.3313 23.6242C32 21.1652 32 16.0353 32 16.0353C32 16.0353 32 10.9053 31.3313 8.44657Z" fill="#ED1D24"/>
<path d="M12.7266 20.6934L21.0902 16.036L12.7266 11.3781V20.6934Z" fill="white"/>
</svg>

<svg width="32" height="32" viewBox="0 0 32 32" fill="none" xmlns="http://www.w3.org/2000/svg">
  <path d="M31.331 8.447a3.98 3.98 0 0 0-2.829-2.788C26.007 5 16 5 16 5S5.993 5 3.498 5.66a3.98 3.98 0 0 0-2.83 2.787C0 10.905 0 16.035 0 16.035s0 5.13.669 7.59a3.98 3.98 0 0 0 2.829 2.787C5.993 27.07 16 27.07 16 27.07s10.007 0 12.502-.658a3.98 3.98 0 0 0 2.83-2.788C32 21.165 32 16.035 32 16.035s0-5.13-.669-7.588" fill="#ED1D24"/>
  <path d="m12.727 20.693 8.363-4.657-8.363-4.658z" fill="#fff"/>
</svg>
